storage/app/icons/phosphoricons/bold/treasure-chest-bold.svg

<svg xmlns="http://www.w3.org/2000/svg" fill="currentColor" viewBox="0 0 256 256"><path d="M184 36H72a60.07 60.07 0 0 0-60 60v96a20 20 0 0 0 20 20h192a20 20 0 0 0 20-20V96a60.07 60.07 0 0 0-60-60m36 60v4h-28V60.91A36.05 36.05 0 0 1 220 96m-92 60a12 12 0 0 0 12-12v-20h28v64H88v-64h28v20a12 12 0 0 0 12 12m12-56v-4a12 12 0 0 0-24 0v4H88V60h80v40ZM64 60.91V100H36v-4a36.05 36.05 0 0 1 28-35.09M36 124h28v64H36Zm156 64v-64h28v64Z"/></svg>

<svg xmlns="http://www.w3.org/2000/svg" viewBox="0 0 256 256" fill="currentColor"><path d="M184,36H72A60.07,60.07,0,0,0,12,96v96a20,20,0,0,0,20,20H224a20,20,0,0,0,20-20V96A60.07,60.07,0,0,0,184,36Zm36,60v4H192V60.91A36.05,36.05,0,0,1,220,96Zm-92,60a12,12,0,0,0,12-12V124h28v64H88V124h28v20A12,12,0,0,0,128,156Zm12-56V96a12,12,0,0,0-24,0v4H88V60h80v40ZM64,60.91V100H36V96A36.05,36.05,0,0,1,64,60.91ZM36,124H64v64H36Zm156,64V124h28v64Z"/></svg>
